X:1
T:Title
%%score 1 2
L:1/8
Q:1/4=95
M:3/4
K:Eb
V:1 treble nm="Grand Piano, Soprano"
V:2 bass nm="Choir Pad, Zapopan, J. R. Jeffrey 1885"
V:1
 [EG]>[B,F] [B,E]3 [EG] | [EB]>[EB] [Ec] [EB]3 | [Ge]>[Ge] [EG]3 [EA] | (3[D-B][DA][DF] E4 | %4
w: By~H.~R.~Jeffrey,~1885 * * *||||
 [EG]>[B,F] [B,E]3 [EG] | [GB]>[GB] [Ac] [GB]3 | [Ge]>[Ge] [EG]3 [EB] | (3[D-B][DA][DF] E4 | %8
w: ||||
 [GB]>[GB] [Ge]3 [Ge] | (3[A-f][Ae][Ac] [GB] [EG]3 | E>[EG] [GB]3 [EG] | E>[EG] [DF]4 | %12
w: ||||
 [EG]>[EB] [B,E]3 [EG] | [GB]>[GB] [Ac] [GB]3 | [Ge]>[Ge] [EG]3 [EB] | (3[D-B][DA][DF] E4- | %16
w: ||||
 E4 z2 |] %17
w: |
V:2
 [E,B,]>[E,A,] [E,G,]3 [E,B,] | [E,G,]>[E,G,] [E,A,] [E,G,]3 | [E,B,]>[E,B,] [E,B,]3 [E,G,] | %3
 (3:2:2[B,,F,]2 [B,,A,] [E,G,]4 | [E,B,]>[E,A,] [E,G,]3 [E,B,] | [E,E]>[E,E] [E,E] [E,E]3 | %6
 [E,B,]>[E,B,] [E,B,]3 [E,G,] | (3:2:2[B,,F,]2 [B,,A,] [E,G,]4 | [E,B,]>[E,B,] [E,B,]3 [E,B,] | %9
 (3:2:2[A,C]2 [A,E] [E,E] [E,B,]3 | [E,G,]>[E,B,] [E,E]3 [E,B,] | [G,B,]>[E,B,] [B,,B,]4 | %12
 [E,B,]>[E,G,] [E,G,]3 [E,B,] | [E,E]>[E,E] [E,E] [E,E]3 | [E,B,]>[E,B,] [E,B,]3 [E,G,] | %15
 (3:2:2[B,,F,]2 [B,,A,] [E,G,]4- | [E,G,]4 z2 |] %17

